icons/batch.svg

<?xml version="1.0" encoding="UTF-8" standalone="no"?>
<svg width="256px" height="256px" viewBox="0 0 256 256" version="1.1" xmlns="http://www.w3.org/2000/svg" xmlns:xlink="http://www.w3.org/1999/xlink" preserveAspectRatio="xMidYMid">
	<g>
		<rect fill="#1A293B" x="0" y="0" width="256" height="256" rx="13"></rect>
		<path d="M88.96,163.847429 L88.96,58.88 L105.000868,58.88 L105.000868,97.7791045 C111.818237,89.0067549 120.540459,84.6456439 131.267789,84.6456439 C141.995119,84.6456439 150.717341,88.5556055 157.033433,96.3254008 C163.349525,104.095196 166.758209,113.819972 166.758209,125.499729 C166.758209,137.179486 163.349525,146.904262 157.033433,154.674058 C150.717341,162.443853 141.944992,166.353814 131.267789,166.353814 C120.590586,166.353814 111.818237,161.992703 105.000868,153.220354 L105.000868,164.398834 L88.96,164.398834 L88.96,163.847429 L88.96,163.847429 Z M105.000868,125.449601 C105.000868,133.219397 106.955849,139.084339 110.815682,143.896599 C115.176793,148.758988 120.540459,151.165118 127.808977,151.165118 C134.626346,151.165118 140.44116,148.758988 143.849845,143.896599 C147.759806,139.034211 149.664659,132.71812 149.664659,125.449601 C149.664659,118.181083 147.709678,111.814864 144.300994,107.002603 C140.391032,102.140215 135.077495,99.7340852 128.260126,99.7340852 C120.991608,99.7340852 115.627943,102.140215 111.717981,107.002603 C106.955849,111.864992 105.000868,117.679806 105.000868,125.449601 L105.000868,125.449601 Z" fill="#FFFFFF"></path>
		<rect fill="#53B6E4" x="88.96" y="182.4" width="78.08" height="15.36"></rect>
	</g>
</svg>

<svg xmlns="http://www.w3.org/2000/svg" viewBox="0 0 256 256">
  <rect width="256" height="256" fill="#1a293b" rx="13"/>
  <path fill="#fff" d="M88.96 163.847V58.88H105v38.9c6.818-8.773 15.54-13.134 26.268-13.134 10.727 0 19.45 3.91 25.765 11.68 6.317 7.77 9.725 17.494 9.725 29.174s-3.408 21.404-9.725 29.174c-6.316 7.77-15.088 11.68-25.765 11.68-10.677 0-19.45-4.361-26.267-13.134V164.4H88.96zM105 125.45c0 7.77 1.956 13.634 5.816 18.447 4.36 4.862 9.724 7.268 16.993 7.268 6.817 0 12.632-2.406 16.04-7.268 3.91-4.863 5.816-11.179 5.816-18.447 0-7.269-1.955-13.635-5.364-18.447-3.91-4.863-9.224-7.269-16.04-7.269-7.27 0-12.633 2.406-16.543 7.269-4.762 4.862-6.717 10.677-6.717 18.447z"/>
  <path fill="#53b6e4" d="M88.96 182.4h78.08v15.36H88.96z"/>
</svg>
